X:1
T:Title
%%score { ( 1 4 ) | ( 2 3 ) }
L:1/8
M:6/8
K:Eb
V:1 treble nm="Grand Piano"
V:4 treble 
V:2 bass 
V:3 bass 
V:1
 z3 z2[Q:1/4=90] [EG] | [GB]>[GB][GB] [GB]2 [EG] | [Ac]2 [Ac] [GB]2 [EG]/[EG]/ | %3
 [DB]2 [DF] [EG]2 [FA] |[M:5/8] [EG]-[EG]- [EG]3 |[M:1/8] [EG] | %6
[M:3/4] [GB]2 [GB][GB] [_G=A][=GB] | cc c [GB]2 [Gc] | dd de dc |[M:5/8] [DB]-[DB]- [DB]3 | %10
[M:1/8] B |[M:3/4] e4 z2 | B6 | [DB][DF] [EG][FA] [GB][DAc] | B6 | e4 z2 | B6 | %17
 [DF][EG] [FA] [EG]2 [DF] |[M:5/8] E-E- E3 |] %19
V:2
 z3 z2 [E,B,] | [E,E]>[E,E][E,E] [E,E]2 [E,B,] | [E,E]2 [E,E] [E,E]2 [E,B,]/[E,B,]/ | %3
 [B,,B,]2 [B,,B,] [B,,B,]2 [B,,B,] |[M:5/8] [E,B,]-[E,B,]- [E,B,]3 |[M:1/8] [E,B,] | %6
[M:3/4] [E,E]2 [E,E][E,E] [E,E][E,E] | [A,EA][A,EA] [A,EA][K:bass] [E,E]2 [E,B,] | z2 z C z2 | %9
[M:5/8] [B,,B,]-[B,,B,]- [B,,B,]3 |[M:1/8] [B,A] |[M:3/4] [E,B,][E,B,] [E,B,][E,B,] [E,B,][E,C] | %12
 [E,E][E,E] [E,E] [E,E]2 [E,B,E] | [B,,B,][B,,B,] [B,,B,][B,,B,] [B,,B,]B,, | %14
 [E,E][E,E] [E,E] [E,E]2 [B,A] | [E,B,][E,B,] [E,B,][E,B,] [E,B,][E,C] | %16
 [E,E][E,E] [E,E] [E,E]2 [E,B,]/[E,B,]/ | [B,,B,][B,,B,] [B,,B,] [B,,B,]2 [B,,A,] | %18
[M:5/8] [E,G,]-[E,G,]- [E,G,]3 |] %19
V:3
 x6 | x6 | x6 | x6 |[M:5/8] x5 |[M:1/8] x |[M:3/4] x6 | x3[K:bass] x3 | %8
 [F,B,F][F,B,F] [F,B,F][F,F]- [F,B,F][F,=A,E] |[M:5/8] x5 |[M:1/8] x |[M:3/4] x6 | x6 | x6 | x6 | %15
 x6 | x6 | x6 |[M:5/8] x5 |] %19
V:4
 x6 | x6 | x6 | x6 |[M:5/8] x5 |[M:1/8] x |[M:3/4] x6 | x6 | x6 |[M:5/8] x5 |[M:1/8] x | %11
[M:3/4] GG GG [Gd][Ac] | GG G G2 G | x6 | GG G G2 B | GG GG [Gd][Ac] | GG G G2 [FA]/[EG]/ | x6 | %18
[M:5/8] x5 |] %19

